dist/svg/static/parking-large.svg

<svg xmlns="http://www.w3.org/2000/svg" width="48" height="48" viewBox="0 0 48 48"><g fill="none" stroke="currentColor" stroke-miterlimit="10"><path d="M37.5 5.5h-32v32c0 2.8 2.2 5 5 5h32v-32c0-2.8-2.2-5-5-5z"/><path d="M17.5 33V15.5h10s5-.2 5 4c0 5.2-1.6 7-5.5 7h-9.5"/></g></svg>

<?xml version="1.0" encoding="UTF-8" standalone="no"?>
<svg width="48px" height="48px" viewBox="0 0 48 48" version="1.1" xmlns="http://www.w3.org/2000/svg" xmlns:xlink="http://www.w3.org/1999/xlink">
    <!-- Generator: sketchtool 46.2 (44496) - http://www.bohemiancoding.com/sketch -->
    <title>parking-large</title>
    <desc>Created with sketchtool.</desc>
    <defs></defs>
    <g id="icons-published" stroke="none" stroke-width="1" fill="none" fill-rule="evenodd">
        <g id="briefing" transform="translate(-2880.000000, -1178.000000)"></g>
        <g id="parking-large" stroke="#000000">
            <path d="M37.5,5.5 L5.5,5.5 L5.5,37.5 C5.5,40.3 7.7,42.5 10.5,42.5 L42.5,42.5 L42.5,10.5 C42.5,7.7 40.3,5.5 37.5,5.5 Z" id="Shape"></path>
            <path d="M17.5,33 L17.5,15.5 L27.5,15.5 C27.5,15.5 32.5,15.3 32.5,19.5 C32.5,24.7 30.9,26.5 27,26.5 L17.5,26.5" id="Shape"></path>
        </g>
    </g>
</svg>
